public/img/apple-pay.svg

<svg width="75" height="43" viewBox="0 0 75 43" fill="none" xmlns="http://www.w3.org/2000/svg">
<path d="M68.2922 0H5.30217C4.84868 0 4.35007 0.0406043 3.89658 0.121813C3.44524 0.203022 2.99173 0.324835 2.53824 0.527856C2.12989 0.690276 1.72155 0.974506 1.40561 1.25874C1.08753 1.54297 0.771576 1.90841 0.588891 2.27385C0.36322 2.63928 0.227821 3.04532 0.135403 3.49198C0.0451352 3.89802 0.0451341 4.34468 0 4.75072V38.2493C0 38.6555 0.0451352 39.1021 0.135403 39.5082C0.227821 39.9141 0.36322 40.3202 0.588891 40.7261C0.81671 41.0916 1.08753 41.4571 1.40561 41.7414C1.72155 42.0255 2.12989 42.3098 2.53824 42.4723C2.9466 42.6752 3.39796 42.797 3.89658 42.8782C4.35007 42.9595 4.84868 42.9595 5.30217 43H69.6978C70.1492 43 70.6478 42.9595 71.1013 42.8782C71.5548 42.797 72.0083 42.6752 72.4618 42.4723C72.8701 42.2691 73.2763 42.0255 73.5944 41.7414C73.9125 41.4571 74.2284 41.0916 74.409 40.7261C74.6368 40.3607 74.7722 39.9548 74.8624 39.5082C74.9527 39.1021 74.9527 38.6555 75 38.2493V37.6809V6.00944V5.31918V4.75072C75 4.34468 74.9527 3.89802 74.8624 3.49198C74.7722 3.08594 74.6368 2.67989 74.409 2.27385C74.1833 1.90841 73.9125 1.54297 73.5944 1.25874C73.2763 0.974506 72.8701 0.690276 72.4618 0.527856C72.0534 0.324835 71.5999 0.203022 71.1013 0.121813C70.6478 0.0406043 70.1492 0.0406043 69.6978 0H68.2922Z" fill="#F8F8F8"/>
<path d="M24.8159 14.5493C25.3562 13.8913 25.7427 13.014 25.6255 12.1367C24.8159 12.1733 23.8506 12.6485 23.27 13.2699C22.7681 13.8182 22.3047 14.7321 22.4201 15.5728C23.3469 15.6825 24.2353 15.2073 24.8159 14.5493ZM25.6255 15.7921C24.314 15.719 23.193 16.4867 22.5758 16.4867C21.9566 16.4867 20.9914 15.8287 19.9491 15.8287C18.5973 15.8653 17.3609 16.5598 16.6667 17.7295C15.2765 20.0324 16.2802 23.432 17.6705 25.2962C18.3262 26.2101 19.1377 27.2336 20.1799 27.1971C21.1855 27.1605 21.572 26.5756 22.7681 26.5756C23.966 26.5756 24.314 27.1971 25.3947 27.1605C26.4754 27.1239 27.1715 26.2468 27.8272 25.2962C28.6002 24.2361 28.9097 23.2127 28.9097 23.1761C28.8713 23.1395 26.785 22.4084 26.785 20.1421C26.7465 18.2413 28.4078 17.3274 28.4848 17.2909C27.5964 15.9749 26.1292 15.8287 25.6255 15.7921Z" fill="black"/>
<path d="M36.013 14.2881C38.595 14.2881 40.3732 16.1056 40.3732 18.7072C40.3732 21.3443 38.5603 23.1619 35.9435 23.1619H33.1183V27.7592H31.0605V14.2881H36.013ZM33.1183 21.4157H35.4555C37.2337 21.4157 38.246 20.4178 38.246 18.7428C38.246 17.0322 37.2337 16.07 35.4555 16.07H33.0835V21.4157H33.1183ZM40.8959 25.015C40.8959 23.3045 42.1861 22.2354 44.4887 22.0927L47.1385 21.9501V21.2019C47.1385 20.097 46.4074 19.4556 45.2214 19.4556C44.0702 19.4556 43.3721 20.0258 43.1985 20.8811H41.3144C41.4203 19.0992 42.9189 17.7806 45.2909 17.7806C47.6282 17.7806 49.1268 19.0279 49.1268 21.0236V27.7949H47.2444V26.1911H47.2097C46.6506 27.296 45.4298 27.973 44.1744 27.973C42.2209 27.973 40.8959 26.7614 40.8959 25.015ZM47.1385 24.1242V23.3401L44.7682 23.4827C43.5822 23.5539 42.9189 24.0885 42.9189 24.9438C42.9189 25.7991 43.6169 26.3692 44.6623 26.3692C46.0584 26.3692 47.1385 25.4072 47.1385 24.1242ZM50.8719 31.4298V29.7906C51.0108 29.8261 51.3599 29.8261 51.4988 29.8261C52.4053 29.8261 52.8932 29.4341 53.2075 28.4364C53.2075 28.4007 53.3828 27.8304 53.3828 27.8304L49.8943 17.9944H52.0215L54.463 26.013H54.4977L56.9392 17.9944H59.0317L55.4405 28.365C54.6036 30.7528 53.6607 31.5011 51.6725 31.5011C51.5335 31.4655 51.0456 31.4655 50.8719 31.4298Z" fill="black"/>
</svg>

<svg width="75" height="43" viewBox="0 0 75 43" fill="none" xmlns="http://www.w3.org/2000/svg"><path d="M68.292 0H5.302C4.85 0 4.35.04 3.897.122a5.79 5.79 0 00-1.359.406c-.408.162-.816.447-1.132.73-.318.285-.634.65-.817 1.016-.226.365-.361.771-.454 1.218-.09.406-.09.853-.135 1.259v33.498c0 .407.045.853.135 1.26.093.405.228.811.454 1.217.228.366.499.731.817 1.015.316.285.724.569 1.132.731.409.203.86.325 1.359.406.453.081.952.081 1.405.122h64.396c.451 0 .95-.04 1.403-.122a5.781 5.781 0 001.36-.406c.41-.203.815-.447 1.133-.73.319-.285.634-.65.815-1.016.228-.365.363-.771.453-1.218.09-.406.09-.852.138-1.259V4.751a5.97 5.97 0 00-.138-1.259 4.388 4.388 0 00-.453-1.218c-.226-.366-.497-.731-.815-1.015-.318-.284-.724-.569-1.132-.731-.409-.203-.862-.325-1.36-.406C70.647.04 70.148.04 69.697 0h-1.406z" fill="#F8F8F8"/><path d="M24.816 14.55c.54-.659.927-1.536.81-2.413-.81.036-1.775.511-2.356 1.133-.502.548-.965 1.462-.85 2.303.927.11 1.815-.366 2.396-1.024zm.81 1.242c-1.312-.073-2.433.695-3.05.695-.62 0-1.585-.658-2.627-.658-1.352.036-2.588.73-3.282 1.9-1.39 2.303-.387 5.703 1.003 7.567.656.914 1.468 1.938 2.51 1.901 1.006-.037 1.392-.621 2.588-.621 1.198 0 1.546.621 2.627.584 1.08-.036 1.777-.913 2.432-1.864.773-1.06 1.083-2.083 1.083-2.12-.039-.036-2.125-.768-2.125-3.034-.038-1.9 1.623-2.815 1.7-2.851-.889-1.316-2.356-1.462-2.86-1.499zm10.387-1.504c2.582 0 4.36 1.818 4.36 4.42 0 2.636-1.813 4.454-4.43 4.454h-2.825v4.597H31.06V14.29h4.953zm-2.895 7.128h2.337c1.779 0 2.791-.998 2.791-2.673 0-1.71-1.012-2.673-2.79-2.673h-2.373v5.346h.035zm7.778 3.599c0-1.71 1.29-2.78 3.593-2.922l2.65-.143v-.748c0-1.105-.732-1.746-1.918-1.746-1.15 0-1.849.57-2.022 1.425h-1.885c.106-1.782 1.605-3.1 3.977-3.1 2.337 0 3.836 1.247 3.836 3.243v6.77h-1.883v-1.603h-.034c-.56 1.105-1.78 1.782-3.036 1.782-1.953 0-3.278-1.212-3.278-2.958zm6.242-.89v-.785l-2.37.143c-1.186.07-1.85.605-1.85 1.46 0 .856.699 1.426 1.744 1.426 1.396 0 2.477-.962 2.477-2.245zm3.734 7.305v-1.64c.139.036.488.036.627.036.906 0 1.394-.392 1.709-1.39 0-.035.175-.606.175-.606l-3.489-9.836h2.128l2.441 8.019h.035l2.441-8.019h2.093L55.44 28.365c-.837 2.388-1.78 3.136-3.769 3.136-.139-.036-.626-.036-.8-.071z" fill="#000"/></svg>
